X: 1436
T: Foster's Reel
C:Peter Somerville, Melbourne, Vic
B: australian traditional tunes wiki
M:4/4
L:1/8
R: Reel
Q: 1/4=100
K:D
V:1 
AG|:"D"F2A2f3e|d2A2F2AG|"A7"(3FGF EGc2dB|A2G2E2FG|
"D"A2F2f3e|d2A2F2AG|"A7"(3FGF EG AGC2|1"D"D2F2D2AG:|2"D"D2F2D2ef||
"A7"g2e2c2A2|GAcde2de|"D"f2d2A2G2|FGAdf2ef|"A7"g2e2c2A2|GAcde2de|"D"f2d2"A7"edce|"D"dA2FE2ef|
"A7"g2e2c2A2|GAcde2de|"D"f2d2A2G2|FGAdf2ed|"A7"c2d2e2f2|gfedc2de|"D"f2d2"A7"edce|"D"dAFED2z2||
% abcbook-tune_id 6342d53a61bf97d0a5667dc7


% abcbook-boost 0
% abcbook-tablature 
% abcbook-transpose 
% abcbook-lastupdated 1665324364992
% abcbook-soundfonts 
% abcbook-repeats 1
% NFF Book 2014

